ui/public/imgs/providers/dnsla.svg

<svg  xmlns="http://www.w3.org/2000/svg" width="200" height="200" viewBox="0 0 122 24" fill="none"><g><path fill-rule="evenodd" clip-rule="evenodd" d="M12.8182 17.2296L8.47407 17.2679C8.34011 17.2679 8.16309 17.2248 8.23007 16.909L10.5409 5.64677H13.0335C17.3729 5.64677 19.3105 8.13461 18.6599 11.7468C18.0044 15.3541 15.6745 17.2296 12.8182 17.2296ZM0.431641 23.4205H15.4687C19.3105 23.4205 23.1236 18.8563 24.2671 16.6076C25.4823 14.225 25.8938 10.4502 25.4775 7.79014C24.9513 4.43156 21.4539 0.0634766 18.6551 0.0634766H5.20639L0.431641 23.4205Z" fill="#1966F0"/><path fill-rule="evenodd" clip-rule="evenodd" d="M48.2748 15.6938L41.1366 0.0634766H36.247L31.4531 23.4205H36.357L39.6008 7.9863L46.6912 23.4396H51.5329L56.3268 0.0634766H51.4803L48.2748 15.6938Z" fill="#1966F0"/><path fill-rule="evenodd" clip-rule="evenodd" d="M56.982 10.5046C57.2882 12.8011 59.3263 14.1933 61.5558 14.2077H67.6127C68.4021 14.2555 68.7275 15.2985 68.6318 15.9396C68.3686 17.6954 67.3065 19.724 66.0817 19.724H54.5898L53.8291 23.4414H68.5696C72.6889 23.4414 75.5595 12.4662 71.2679 10.318C70.5359 9.94963 69.469 9.75825 68.2825 9.75825H62.216C60.6228 9.75825 61.9433 4.50029 63.5652 4.50029H75.7508L76.6646 0.0556666H63.7422C58.3072 0.0508823 56.5035 6.87331 56.982 10.5046Z" fill="#1966F0"/><path fill-rule="evenodd" clip-rule="evenodd" d="M108.376 13.6639L113.845 4.62634L115.73 13.6639H108.376ZM97.9561 23.3569H102.874L106.19 17.9507H116.567L117.687 23.3569H121.973L117.232 0.0668945H111.725L97.9561 23.3569Z" fill="#1966F0"/><path fill-rule="evenodd" clip-rule="evenodd" d="M86.6971 23.3662H96.0743L96.8924 20.6439L92.3378 20.7157C90.4719 20.7396 86.7449 20.754 87.5535 16.8213L90.9886 0.0522461H86.0895L82.5539 17.3475C81.6975 21.5099 83.1184 23.3662 86.6971 23.3662Z" fill="#1966F0"/><path fill-rule="evenodd" clip-rule="evenodd" d="M27.8549 12.6305C26.8502 19.6682 20.0756 22.8641 18.5781 23.4239H28.563L33.3569 0.0668945H20.6976C25.0752 1.49262 28.8931 6.36784 27.8549 12.6305Z" fill="#1966F0"/><path fill-rule="evenodd" clip-rule="evenodd" d="M78.9946 23.4237H74.5596L75.5117 18.936H79.918L78.9946 23.4237Z" fill="#1966F0"/></g></svg>

<svg xmlns="http://www.w3.org/2000/svg" width="200" height="200" fill="none" viewBox="0 0 122 24"><g fill="#1966f0" fill-rule="evenodd" clip-rule="evenodd"><path d="m12.818 17.23-4.344.038c-.134 0-.31-.043-.244-.359l2.31-11.262h2.494c4.339 0 6.277 2.488 5.626 6.1-.656 3.607-2.985 5.483-5.842 5.483M.432 23.42h15.037c3.842 0 7.655-4.564 8.798-6.812 1.215-2.383 1.627-6.158 1.21-8.818-.526-3.358-4.023-7.727-6.822-7.727H5.206zm47.843-7.726L41.137.064h-4.89L31.453 23.42h4.904l3.244-15.435 7.09 15.454h4.842L56.327.063H51.48zm8.707-5.189c.306 2.296 2.344 3.688 4.574 3.703h6.057c.79.047 1.115 1.09 1.019 1.732-.263 1.755-1.326 3.784-2.55 3.784H54.59l-.76 3.717h14.74c4.119 0 6.99-10.975 2.698-13.123-.732-.368-1.799-.56-2.986-.56h-6.066c-1.593 0-.273-5.258 1.35-5.258H75.75l.914-4.444H63.742c-5.435-.005-7.238 6.817-6.76 10.449m51.394 3.159 5.469-9.038 1.885 9.038zm-10.42 9.693h4.918l3.316-5.406h10.377l1.12 5.406h4.286L117.232.067h-5.507zm-11.259.009h9.377l.818-2.722-4.554.072c-1.866.024-5.593.038-4.784-3.895L90.989.052h-4.9l-3.535 17.296c-.856 4.162.564 6.018 4.143 6.018"/><path d="M27.855 12.63c-1.005 7.038-7.78 10.234-9.277 10.794h9.985L33.357.067h-12.66c4.378 1.426 8.196 6.3 7.158 12.564m51.14 10.793H74.56l.952-4.488h4.406z"/></g></svg>
